packages/bezier-icons/icons/graph-filled.svg

<svg width="24" height="24" viewBox="0 0 24 24" fill="none" xmlns="http://www.w3.org/2000/svg">
<path fill-rule="evenodd" clip-rule="evenodd" d="M13.7756 21.0001H10.2246C9.96259 21.0001 9.75059 20.7871 9.75059 20.5251V3.47512C9.75059 3.21212 9.96259 3.00012 10.2246 3.00012H13.7756C14.0376 3.00012 14.2506 3.21212 14.2506 3.47512V20.5251C14.2506 20.7871 14.0376 21.0001 13.7756 21.0001ZM20.5256 21.0001H16.9746C16.7126 21.0001 16.5006 20.7871 16.5006 20.5251V8.47512C16.5006 8.21212 16.7126 8.00012 16.9746 8.00012H20.5256C20.7876 8.00012 21.0006 8.21212 21.0006 8.47512V20.5251C21.0006 20.7871 20.7876 21.0001 20.5256 21.0001ZM3.52009 21.0001H6.98009C7.26709 21.0001 7.50009 20.7681 7.50009 20.4801V15.5201C7.50009 15.2321 7.26709 15.0001 6.98009 15.0001H3.52009C3.23209 15.0001 3.00009 15.2321 3.00009 15.5201V20.4801C3.00009 20.7681 3.23209 21.0001 3.52009 21.0001Z" fill="#313234"/>
</svg>

<svg xmlns="http://www.w3.org/2000/svg" width="24" height="24" fill="none" viewBox="0 0 24 24"><path fill="#313234" fill-rule="evenodd" d="M13.776 21h-3.551a.475.475 0 0 1-.474-.475V3.475c0-.263.212-.475.474-.475h3.55c.263 0 .476.212.476.475v17.05a.475.475 0 0 1-.475.475m6.75 0h-3.551a.475.475 0 0 1-.474-.475V8.475c0-.263.212-.475.474-.475h3.55c.263 0 .476.212.476.475v12.05a.475.475 0 0 1-.475.475M3.52 21h3.46a.52.52 0 0 0 .52-.52v-4.96a.52.52 0 0 0-.52-.52H3.52a.52.52 0 0 0-.52.52v4.96c0 .288.232.52.52.52" clip-rule="evenodd"/></svg>
